X:129
T:Trip to Dunsburn, A
M:6/8
L:1/8
B:Thompson's Compleat Collection of 200 Favourite Country Dances, vol. 3 (London, 1773)
Z:Transcribed and edited by Flynn Titford-Mock, 2007
Z:abc's:AK/Fiddler's Companion
K:Bb
Bdf edc | ABc F3 | BAG FED | E[Dd][Cc] [B,3B3] | DFB dcB | FAc edc | fed cBA | BAG F3 :|
|: fff f2_A | G_AF G2E | ggg g2G | ABG A2F | ddd def | ccc cde | fdB ecA | FGA B3 :|

